src/pos-icons/bulldozer.svg

<svg height="24" viewBox="0 0 24 24" width="24" xmlns="http://www.w3.org/2000/svg"><path d="m4 4a1 1 0 0 0 -1 1v5c-.46 0-.86.31-.97.76v3.21h.26c.36-.6 1.01-.97 1.71-.97h9c.7 0 1.35.37 1.71.97h1.32l-.03-2.97a1 1 0 0 0 -1-1h-2v-2a1 1 0 0 0 -1-1 1 1 0 0 0 -1 1v2h-2v-5a1 1 0 0 0 -1-1zm1 2h2v4 1h-2zm12 5v8h5v-1l-3-1-1-6zm-13 4a2 2 0 0 0 -2 2 2 2 0 0 0 2 2h9a2 2 0 0 0 2-2 2 2 0 0 0 -2-2z"/></svg>

<?xml version="1.0" encoding="UTF-8"?><!DOCTYPE svg PUBLIC "-//W3C//DTD SVG 1.1//EN" "http://www.w3.org/Graphics/SVG/1.1/DTD/svg11.dtd"><svg xmlns="http://www.w3.org/2000/svg" xmlns:xlink="http://www.w3.org/1999/xlink" version="1.1" id="mdi-bulldozer" width="24" height="24" viewBox="0 0 24 24"><path d="M4,4A1,1 0 0,0 3,5V10C2.54,10 2.14,10.31 2.03,10.76V13.97H2.29C2.65,13.37 3.3,13 4,13H13C13.7,13 14.35,13.37 14.71,13.97H16.03L16,11V11A1,1 0 0,0 15,10H13V8A1,1 0 0,0 12,7A1,1 0 0,0 11,8V10H9V5A1,1 0 0,0 8,4H4M5,6H7V10L7,11H5V6M17,11V19H22V18L19,17L18,11H17M4,15A2,2 0 0,0 2,17A2,2 0 0,0 4,19H13A2,2 0 0,0 15,17A2,2 0 0,0 13,15H4Z" /></svg>
